!!!OTL: Die Sonne ist verblichen. / C. Im thon: Die Sonne ist verblichen
!!!ARE: Europa, Mitteleuropa, Deutschland
!!!SCT: A0116C
!!!TXL: @@GMH
!!!YEM: Copyright 1995, estate of Helmut Schaffrath.
**kern	**text
!! Mixed meters:  4/2; 6/2
*M4/2	*
*met(c|)	*
*k[b-]	*
*G:	*
=1	=1
2ryy	.
{2g	Fůr
2g	frew-
2g	-den
=2	=2
*lig	*
2dd	wil
1ff	.
*Xlig	*
2ee	ich
=3	=3
2dd	ſin-
1a}	-gen,
{2g	vnd
=4	=4
*M6/2	*
1dd	dank
2cc	dem
*lig	*
2cc	lie-
2dd	.
*Xlig	*
2b-	-ben
=5	=5
*M4/2	*
0a}	Gott,
=6	=6
{2r	.
2g	Fůr
2g	frew-
2g	-den
=7	=7
*lig	*
2dd	muß
1ff	.
*Xlig	*
2ee	ich
=8	=8
2dd	ſpringen,
1a}	.
{2g	es
=9	=9
*M6/2	*
1dd	hat
2cc	mit
*lig	*
2cc	mir
2dd	.
*Xlig	*
2b-	kein
=10	=10
*M4/2	*
1a	Not,
2r}	.
{2b-	Sein
=11	=11
2cc	lie-
2ff	-be
2ff	will
2dd	ich
=12	=12
2cc	rüh-
1b-}	-men,
{2ee-	die
=13	=13
2dd	er
2cc	be-
2b-/	-wie-
2a	-ſen
=14	=14
1g	hat
2r}	.
{2g	in
=15	=15
2cc	Chri-
2cc	-ſto
2cc	ſei-
2dd	-nem
=16	=16
1ee-	Soh-
1cc}	-ne
=17	=17
{2r	.
2dd	ge-
2dd	-ſand
2dd	aus
=18	=18
2dd	ſei-
2cc	-nem
*lig	*
2b-/	Thro-
4a	.
4g	.
=19	=19
1f#i	-ne
*Xlig	*
*lig	*
2.g	ohn
4a	.
*Xlig	*
=20	=20
*M6/2	*
2b-	En-
1dd	-de
2dd	früh
1a	vnd
=21	=21
0.g/ll}	ſpat.
==	==
!!!GTL: Tage- oder Wächterlieder
!!!AGN: Romanze, Ballade, Lied
!! Praetorius Mus. Sion. VI. No. 195 "Fuer frewden wil ich singen"
!!!ONB: ESAC (Essen Associative Code) Database: ALTDEU
!!!AMT: irregular
!!!AIN: vox
!!!EED: Helmut Schaffrath
!!!EEV: 1.0
!!@@COMMENT: "C. Nochmals bringt PrätoriuS 'Mus. Sion. VI. No. 195)
!! dieselbe Melodie, aber sehr abweichendzu solgeudem Weihnachts lied:"
!!@@END:
!!!RDF**kern: i = editorial accidental
!!!RDF**kern: l = terminal long
!!!URL-scan: https://rosdok.uni-rostock.de/mcrviewer/recordIdentifier/rosdok_ppn738218359/iview2/phys_0288.iview2?x=-425.8853427895981&y=1548.7446808577515&scale=0.4823261117445838&rotation=0&layout=singlePageLayout&logicalDiv=log_0008
!!!ENC: Anna Maria Matuszewska
!!!EEV: 2024/23/02
*-	*-
